X: 76
T:Bracken's
M:6/8
L:1/8
S:Ciaran Kelly, Moneymore, Derry (Accordian)
R:Jig
D:Session tape - Belfast
Z:Bernie Stocks
M:6/8
K:G %i.e. Em
E3 GEG | BeB GFE | D3 FDF | AdA FED | E3 GEG | Bdg BAG | ABc BAB | GEE E3 ::\
g3 eBe | geg bag |1f3 dAd | fdf agf :|2 dcB AGF | GEE E3 :|
